X:1
T:The White Hare
R:slipjig
L:1/8
Q:1/4=120
M:9/8
K:Bmin
V:1
|: Bba ^fe^c efa | AA/A/A BAF EE/E/E | CEA FEC EFA | Bba fec efa 
| AcA BAF EA/B/c |1 dcB cAF EFA :|2 dfe cBA B3 ||
|: A2 F FAF ECE | FcB AFE FAB | A2 F FAF ECE |1 Ffe cBA B3 :|2 Ffe cBA B2 A || 


